X:1
T:Prepare to Meeet Thy God (Chisholm)
T:Prepare to Meeet Thy God (Chisholm)
T:George Coles Stebbins
T:Thomas Obediah Chisholm, 1917
T:Public Domain Courtesy of the Cyber Hymnal™
T:Public Domain Courtesy of the Cyber Hymnal™
C:George Coles Stebbins
Z:Public Domain
Z:Courtesy of the Cyber Hymnal™
%%score ( 1 2 ) ( 3 4 )
L:1/8
Q:1/4=95
M:4/4
K:Ab
V:1 treble 
V:2 treble 
V:3 bass 
V:4 bass 
V:1
 [CE]2 [=B,=D]>[CE] [_DF]2 [CE][CA] | [Ec]2 [EB][EA] [DA] [DG]3"^Slowly" [CA] | %2
w: 1.~O thought- less one, to for-|give- ness a strang- er, Pre-|
w: 2.~For all thy past, full ac-|count thou must ren- der, Pre-|
w: 3.~Wilt thou de- lay, when thou|hast not a rea- son? Pre-|
w: 4.~E- ter- ni- ty! where, O|where wilt thou spend it? Pre-|
 [CA]3 [CA] [DF]2 [DG]2 | [CA]6 z2 | [CE]2 [=B,=D]>[CE] [_DF]2 [CE][CA] | %5
w: pare to meet thy|God!|Con- demned, un- done, yet so|
w: pare to meet thy|God!|As yet thou hast, for that|
w: pare to meet thy|God!|Or think to say, “a con-|
w: pare to meet thy|God!|There’s hope for thee, but a|
 [Ec]2 [EB][EA] [DA] [DG]3"^Slowly" [CA] | [CA]3 [CA] [DF]2 [DG]2 | [CA]6 z2 | %8
w: blind to thy dan- ger, Pre-|pare to meet thy|God!|
w: hour, no de- fend- er, Pre-|pare to meet thy|God!|
w: ven- ient season”? Pre- pare to|meet thy God! To-|day|
w: mo- ment may end it, Pre-|pare to meet thy|God!|
 [DB]2 [C=A][DB] [Ec]2 [DB]2 | [CA]3 [DF] [CE]4 | [Ec]2 [DB][Ec] [Fd]2 [Ec]2 | [=DB]3 F [EB]4 | %12
w: He doth com- mand thee|to re- pent,|To save thy soul, His|Son hath sent,|
w: Be- fore His dread- ful|judg- ment throne,|How canst thou bear to|stand a- lone,|
w: the ve- ry last may|be, How wouldst|thou an- swer Him, should|He This night|
w: O haste to flee “the|wrath to come,”|In Christ find re- fuge,|rest, and home,|
 [DB]2 [C=A][DB] [Ec]2 [EB]2 | [Ee]3 [Ec] !fermata![FA]2"^Slowly" [CA] | [CA]3 [CA] [DF]2 [DG]2 | %15
w: Yet t’ward de- struc- tion|thou art bent, Pre-|pare to meet thy|
w: With none thy hope- less|cause to own? Pre-|pare to meet thy|
w: re- quire thy soul of|thee? Pre- pare to|meet thy God! *|
w: Ere long will toll the|bells of doom! Pre-|pare to meet thy|
 [CA]6 |] %16
w: God!|
w: God!|
w: |
w: God!|
V:2
 x8 | x9 | x8 | x8 | x8 | x9 | x8 | x8 | x8 | x8 | x8 | x3 F x4 | x8 | x7 | x8 | x6 |] %16
V:3
 [A,,A,]2 [A,,A,]>[A,,A,] [A,,A,]2 [A,,A,][A,,A,] | [A,,A,]2 [B,,G,][C,A,] [E,B,] [E,B,]3 [F,A,] | %2
 [F,A,]3 [F,A,] (A,B,) [E,G,B,]2 | [A,,A,]6 z2 | [A,,A,]2 [A,,A,]>[A,,A,] [A,,A,]2 [A,,A,][A,,A,] | %5
 [A,,A,]2 [B,,G,][C,A,] [E,B,] [E,B,]3 [F,A,] | [F,A,]3 [F,A,] (A,B,) [E,G,B,]2 | [A,,A,]6 z2 | %8
 [E,G,]2 [E,G,][E,G,] [E,G,]2 [E,G,]2 | [A,,A,]3 [A,,A,] [A,,A,]4 | A,2 _A,_A, [F,=A,]2 [F,A,]2 | %11
 [B,,B,]3 [=D,A,] [E,G,]4 | [E,G,]2 [E,G,][E,G,] [E,G,]2 [D,G,]2 | [C,A,]3 [C,A,] [F,A,]2 [F,A,] | %14
 [F,A,]3 [F,A,] (A,B,) [E,G,B,]2 | [A,,A,]6 |] %16
V:4
 x8 | x9 | x4 [D,F,]2 x2 | x8 | x8 | x9 | x4 [D,F,]2 x2 | x8 | x8 | x8 | =A,2 =A,=A, x4 | x8 | x8 | %13
 x7 | x4 [D,F,]2 x2 | x6 |] %16

